X:1     %Music
T:Barbara Allen
B:Kidson F, 1891, Traditional Tunes, Oxford, Taphouse and Son
Z:Frank Kidson
S:Mr Holgate
F:http://www.folkinfo.org/songs
M:3/4     %Meter
L:1/8     %
K:F
C |F F A3 F |E G B3 C |F F A3 F | E G4
w:In Read-ing town, where I was born, There was a fair maid dwel-ling.
 C |F F c3 A |B B D3 E/F/ |G G C/E/ G HB2 | A F4  |]
w: Made ev-'ry youth cry "well-a-day!" Her_ name was Bar-*ba-ra Al-len 